src/collections/integrations/grafana-operator/icons/components/grafana-connection/icons/color/grafana-connection-color.svg

<svg version="1.1" id="Layer_1" xmlns="http://www.w3.org/2000/svg" xmlns:xlink="http://www.w3.org/1999/xlink" x="0px" y="0px"
	 viewBox="0 0 103.7 112.7" style="enable-background:new 0 0 103.7 112.7;" xml:space="preserve">
<style type="text/css">
	.st0{fill:url(#SVGID_1_);}
</style>
<linearGradient id="SVGID_1_" gradientUnits="userSpaceOnUse" x1="51.85" y1="1069.5107" x2="51.85" y2="966.6585" gradientTransform="matrix(1 0 0 1 0 -931.4)">
	<stop  offset="0" style="stop-color:#FCEE1F"/>
	<stop  offset="1" style="stop-color:#F15B2A"/>
</linearGradient>
<path class="st0" d="M103.5,49.9c-0.2-1.9-0.5-4.1-1.1-6.5c-0.6-2.4-1.6-5-2.9-7.8c-1.4-2.7-3.1-5.6-5.4-8.3
	c-0.9-1.1-1.9-2.1-2.9-3.2c1.6-6.3-1.9-11.8-1.9-11.8c-6.1-0.4-9.9,1.9-11.3,2.9c-0.2-0.1-0.5-0.2-0.7-0.3c-1-0.4-2.1-0.8-3.2-1.2
	c-1.1-0.3-2.2-0.7-3.3-0.9c-1.1-0.3-2.3-0.5-3.5-0.7c-0.2,0-0.4-0.1-0.6-0.1C64.1,3.6,56.5,0,56.5,0c-8.7,5.6-10.4,13.1-10.4,13.1
	s0,0.2-0.1,0.4c-0.5,0.1-0.9,0.3-1.4,0.4c-0.6,0.2-1.3,0.4-1.9,0.7c-0.6,0.3-1.3,0.5-1.9,0.8c-1.3,0.6-2.5,1.2-3.8,1.9
	c-1.2,0.7-2.4,1.4-3.5,2.2c-0.2-0.1-0.3-0.2-0.3-0.2c-11.7-4.5-22.1,0.9-22.1,0.9c-0.9,12.5,4.7,20.3,5.8,21.7
	c-0.3,0.8-0.5,1.5-0.8,2.3c-0.9,2.8-1.5,5.7-1.9,8.7c-0.1,0.4-0.1,0.9-0.2,1.3C3.2,59.5,0,70.5,0,70.5c9,10.4,19.6,11,19.6,11l0,0
	c1.3,2.4,2.9,4.7,4.6,6.8c0.7,0.9,1.5,1.7,2.3,2.6c-3.3,9.4,0.5,17.3,0.5,17.3c10.1,0.4,16.7-4.4,18.1-5.5c1,0.3,2,0.6,3,0.9
	c3.1,0.8,6.3,1.3,9.4,1.4c0.8,0,1.6,0,2.4,0h0.4h0.3h0.5h0.5l0,0c4.7,6.8,13.1,7.7,13.1,7.7c5.9-6.3,6.3-12.4,6.3-13.8l0,0
	c0,0,0,0,0-0.1s0-0.2,0-0.2l0,0c0-0.1,0-0.2,0-0.3c1.2-0.9,2.4-1.8,3.6-2.8c2.4-2.1,4.4-4.6,6.2-7.2c0.2-0.2,0.3-0.5,0.5-0.7
	c6.7,0.4,11.4-4.2,11.4-4.2c-1.1-7-5.1-10.4-5.9-11l0,0c0,0,0,0-0.1-0.1l-0.1-0.1l0,0l-0.1-0.1c0-0.4,0.1-0.8,0.1-1.3
	c0.1-0.8,0.1-1.5,0.1-2.3v-0.6v-0.3v-0.1c0-0.2,0-0.1,0-0.2v-0.5v-0.6c0-0.2,0-0.4,0-0.6s0-0.4-0.1-0.6l-0.1-0.6l-0.1-0.6
	c-0.1-0.8-0.3-1.5-0.4-2.3c-0.7-3-1.9-5.9-3.4-8.4c-1.6-2.6-3.5-4.8-5.7-6.8c-2.2-1.9-4.6-3.5-7.2-4.6c-2.6-1.2-5.2-1.9-7.9-2.2
	c-1.3-0.2-2.7-0.2-4-0.2h-0.5h-0.1H67h-0.2h-0.5c-0.2,0-0.4,0-0.5,0c-0.7,0.1-1.4,0.2-2,0.3c-2.7,0.5-5.2,1.5-7.4,2.8
	c-2.2,1.3-4.1,3-5.7,4.9s-2.8,3.9-3.6,6.1c-0.8,2.1-1.3,4.4-1.4,6.5c0,0.5,0,1.1,0,1.6c0,0.1,0,0.3,0,0.4v0.4c0,0.3,0,0.5,0.1,0.8
	c0.1,1.1,0.3,2.1,0.6,3.1c0.6,2,1.5,3.8,2.7,5.4s2.5,2.8,4,3.8s3,1.7,4.6,2.2s3.1,0.7,4.5,0.6c0.2,0,0.4,0,0.5,0s0.2,0,0.3,0
	s0.2,0,0.3,0c0.2,0,0.3,0,0.5,0h0.1H64c0.1,0,0.2,0,0.3,0c0.2,0,0.4-0.1,0.5-0.1c0.2,0,0.3-0.1,0.5-0.1c0.3-0.1,0.7-0.2,1-0.3
	c0.6-0.2,1.2-0.5,1.8-0.7c0.6-0.3,1.1-0.6,1.5-0.9c0.1-0.1,0.3-0.2,0.4-0.3c0.5-0.4,0.6-1.1,0.2-1.6c-0.4-0.4-1-0.5-1.5-0.3
	c-0.1,0.1-0.2,0.1-0.4,0.2c-0.4,0.2-0.9,0.4-1.3,0.5c-0.5,0.1-1,0.3-1.5,0.4c-0.3,0-0.5,0.1-0.8,0.1c-0.1,0-0.3,0-0.4,0
	c-0.1,0-0.3,0-0.4,0s-0.3,0-0.4,0c-0.2,0-0.3,0-0.5,0c0,0-0.1,0,0,0h-0.1h-0.1c-0.1,0-0.1,0-0.2,0s-0.3,0-0.4-0.1
	c-1.1-0.2-2.3-0.5-3.4-1s-2.2-1.2-3.1-2.1c-1-0.9-1.8-1.9-2.5-3.1s-1.1-2.5-1.3-3.8c-0.1-0.7-0.2-1.4-0.1-2.1c0-0.2,0-0.4,0-0.6
	c0,0.1,0,0,0,0v-0.1v-0.1c0-0.1,0-0.2,0-0.3c0-0.4,0.1-0.7,0.2-1.1c0.5-3,2-5.9,4.3-8.1c0.6-0.6,1.2-1.1,1.9-1.5
	c0.7-0.5,1.4-0.9,2.1-1.2s1.5-0.6,2.3-0.8s1.6-0.4,2.4-0.4c0.4,0,0.8-0.1,1.2-0.1c0.1,0,0.2,0,0.3,0h0.3H67c0.1,0,0,0,0,0h0.1h0.3
	c0.9,0.1,1.8,0.2,2.6,0.4c1.7,0.4,3.4,1,5,1.9c3.2,1.8,5.9,4.5,7.5,7.8c0.8,1.6,1.4,3.4,1.7,5.3c0.1,0.5,0.1,0.9,0.2,1.4v0.3V66
	c0,0.1,0,0.2,0,0.3c0,0.1,0,0.2,0,0.3v0.3v0.3c0,0.2,0,0.6,0,0.8c0,0.5-0.1,1-0.1,1.5c-0.1,0.5-0.1,1-0.2,1.5
	c-0.1,0.5-0.2,1-0.3,1.5c-0.2,1-0.6,1.9-0.9,2.9c-0.7,1.9-1.7,3.7-2.9,5.3c-2.4,3.3-5.7,6-9.4,7.7c-1.9,0.8-3.8,1.5-5.8,1.8
	c-1,0.2-2,0.3-3,0.3h-0.2h-0.2h-0.3h-0.5h-0.3c0.1,0,0,0,0,0h-0.1c-0.5,0-1.1,0-1.6-0.1c-2.2-0.2-4.3-0.6-6.4-1.2s-4.1-1.4-6-2.4
	c-3.8-2-7.2-4.9-9.9-8.2c-1.3-1.7-2.5-3.5-3.5-5.4s-1.7-3.9-2.3-5.9s-0.9-4.1-1-6.2v-0.4v-0.1v-0.1v-0.2V60v-0.1v-0.1v-0.2v-0.5V59
	l0,0v-0.2c0-0.3,0-0.5,0-0.8c0-1,0.1-2.1,0.3-3.2c0.1-1.1,0.3-2.1,0.5-3.2c0.2-1.1,0.5-2.1,0.8-3.2c0.6-2.1,1.3-4.1,2.2-6
	c1.8-3.8,4.1-7.2,6.8-9.9c0.7-0.7,1.4-1.3,2.2-1.9c0.3-0.3,1-0.9,1.8-1.4s1.6-1,2.5-1.4c0.4-0.2,0.8-0.4,1.3-0.6
	c0.2-0.1,0.4-0.2,0.7-0.3c0.2-0.1,0.4-0.2,0.7-0.3c0.9-0.4,1.8-0.7,2.7-1c0.2-0.1,0.5-0.1,0.7-0.2s0.5-0.1,0.7-0.2
	c0.5-0.1,0.9-0.2,1.4-0.4c0.2-0.1,0.5-0.1,0.7-0.2c0.2,0,0.5-0.1,0.7-0.1s0.5-0.1,0.7-0.1l0.4-0.1l0.4-0.1c0.2,0,0.5-0.1,0.7-0.1
	c0.3,0,0.5-0.1,0.8-0.1c0.2,0,0.6-0.1,0.8-0.1c0.2,0,0.3,0,0.5-0.1h0.3H61h0.2c0.3,0,0.5,0,0.8-0.1h0.4c0,0,0.1,0,0,0h0.1h0.2
	c0.2,0,0.5,0,0.7,0c0.9,0,1.8,0,2.7,0c1.8,0.1,3.6,0.3,5.3,0.6c3.4,0.6,6.7,1.7,9.6,3.2c2.9,1.4,5.6,3.2,7.8,5.1
	c0.1,0.1,0.3,0.2,0.4,0.4c0.1,0.1,0.3,0.2,0.4,0.4c0.3,0.2,0.5,0.5,0.8,0.7s0.5,0.5,0.8,0.7c0.2,0.3,0.5,0.5,0.7,0.8
	c1,1,1.9,2.1,2.7,3.1c1.6,2.1,2.9,4.2,3.9,6.2c0.1,0.1,0.1,0.2,0.2,0.4c0.1,0.1,0.1,0.2,0.2,0.4c0.1,0.2,0.2,0.5,0.4,0.7
	c0.1,0.2,0.2,0.5,0.3,0.7c0.1,0.2,0.2,0.5,0.3,0.7c0.4,0.9,0.7,1.8,1,2.7c0.5,1.4,0.8,2.6,1.1,3.6c0.1,0.4,0.5,0.7,0.9,0.7
	c0.5,0,0.8-0.4,0.8-0.9C103.6,52.7,103.6,51.4,103.5,49.9z"/>
</svg>

<svg width="104" height="113" viewBox="0 0 104 113" fill="none" xmlns="http://www.w3.org/2000/svg">
<path d="M103.5 49.9C103.3 48 103 45.8 102.4 43.4C101.8 41 100.8 38.4 99.5 35.6C98.1 32.9 96.4 30 94.1 27.3C93.2 26.2 92.2 25.2 91.2 24.1C92.8 17.8 89.3 12.3 89.3 12.3C83.2 11.9 79.4 14.2 78 15.2C77.8 15.1 77.5 15 77.3 14.9C76.3 14.5 75.2 14.1 74.1 13.7C73 13.4 71.9 13 70.8 12.8C69.7 12.5 68.5 12.3 67.3 12.1C67.1 12.1 66.9 12 66.7 12C64.1 3.6 56.5 0 56.5 0C47.8 5.6 46.1 13.1 46.1 13.1C46.1 13.1 46.1 13.3 46 13.5C45.5 13.6 45.1 13.8 44.6 13.9C44 14.1 43.3 14.3 42.7 14.6C42.1 14.9 41.4 15.1 40.8 15.4C39.5 16 38.3 16.6 37 17.3C35.8 18 34.6 18.7 33.5 19.5C33.3 19.4 33.2 19.3 33.2 19.3C21.5 14.8 11.1 20.2 11.1 20.2C10.2 32.7 15.8 40.5 16.9 41.9C16.6 42.7 16.4 43.4 16.1 44.2C15.2 47 14.6 49.9 14.2 52.9C14.1 53.3 14.1 53.8 14 54.2C3.2 59.5 0 70.5 0 70.5C9 80.9 19.6 81.5 19.6 81.5C20.9 83.9 22.5 86.2 24.2 88.3C24.9 89.2 25.7 90 26.5 90.9C23.2 100.3 27 108.2 27 108.2C37.1 108.6 43.7 103.8 45.1 102.7C46.1 103 47.1 103.3 48.1 103.6C51.2 104.4 54.4 104.9 57.5 105C58.3 105 59.1 105 59.9 105H60.3H60.6H61.1H61.6C66.3 111.8 74.7 112.7 74.7 112.7C80.6 106.4 81 100.3 81 98.9C81 98.9 81 98.9 81 98.8C81 98.7 81 98.6 81 98.6C81 98.5 81 98.4 81 98.3C82.2 97.4 83.4 96.5 84.6 95.5C87 93.4 89 90.9 90.8 88.3C91 88.1 91.1 87.8 91.3 87.6C98 88 102.7 83.4 102.7 83.4C101.6 76.4 97.6 73 96.8 72.4C96.8 72.4 96.8 72.4 96.7 72.3L96.6 72.2L96.5 72.1C96.5 71.7 96.6 71.3 96.6 70.8C96.7 70 96.7 69.3 96.7 68.5V67.9V67.6V67.5C96.7 67.3 96.7 67.4 96.7 67.3V66.8V66.2C96.7 66 96.7 65.8 96.7 65.6C96.7 65.4 96.7 65.2 96.6 65L96.5 64.4L96.4 63.8C96.3 63 96.1 62.3 96 61.5C95.3 58.5 94.1 55.6 92.6 53.1C91 50.5 89.1 48.3 86.9 46.3C84.7 44.4 82.3 42.8 79.7 41.7C77.1 40.5 74.5 39.8 71.8 39.5C70.5 39.3 69.1 39.3 67.8 39.3H67.3H67.2H67H66.8H66.3C66.1 39.3 65.9 39.3 65.8 39.3C65.1 39.4 64.4 39.5 63.8 39.6C61.1 40.1 58.6 41.1 56.4 42.4C54.2 43.7 52.3 45.4 50.7 47.3C49.1 49.2 47.9 51.2 47.1 53.4C46.3 55.5 45.8 57.8 45.7 59.9C45.7 60.4 45.7 61 45.7 61.5C45.7 61.6 45.7 61.8 45.7 61.9V62.3C45.7 62.6 45.7 62.8 45.8 63.1C45.9 64.2 46.1 65.2 46.4 66.2C47 68.2 47.9 70 49.1 71.6C50.3 73.2 51.6 74.4 53.1 75.4C54.6 76.4 56.1 77.1 57.7 77.6C59.3 78.1 60.8 78.3 62.2 78.2C62.4 78.2 62.6 78.2 62.7 78.2C62.8 78.2 62.9 78.2 63 78.2C63.1 78.2 63.2 78.2 63.3 78.2C63.5 78.2 63.6 78.2 63.8 78.2H63.9H64C64.1 78.2 64.2 78.2 64.3 78.2C64.5 78.2 64.7 78.1 64.8 78.1C65 78.1 65.1 78 65.3 78C65.6 77.9 66 77.8 66.3 77.7C66.9 77.5 67.5 77.2 68.1 77C68.7 76.7 69.2 76.4 69.6 76.1C69.7 76 69.9 75.9 70 75.8C70.5 75.4 70.6 74.7 70.2 74.2C69.8 73.8 69.2 73.7 68.7 73.9C68.6 74 68.5 74 68.3 74.1C67.9 74.3 67.4 74.5 67 74.6C66.5 74.7 66 74.9 65.5 75C65.2 75 65 75.1 64.7 75.1C64.6 75.1 64.4 75.1 64.3 75.1C64.2 75.1 64 75.1 63.9 75.1C63.8 75.1 63.6 75.1 63.5 75.1C63.3 75.1 63.2 75.1 63 75.1H62.9H62.8C62.7 75.1 62.7 75.1 62.6 75.1C62.5 75.1 62.3 75.1 62.2 75C61.1 74.8 59.9 74.5 58.8 74C57.7 73.5 56.6 72.8 55.7 71.9C54.7 71 53.9 70 53.2 68.8C52.5 67.6 52.1 66.3 51.9 65C51.8 64.3 51.7 63.6 51.8 62.9C51.8 62.7 51.8 62.5 51.8 62.3V62.2V62.1C51.8 62 51.8 61.9 51.8 61.8C51.8 61.4 51.9 61.1 52 60.7C52.5 57.7 54 54.8 56.3 52.6C56.9 52 57.5 51.5 58.2 51.1C58.9 50.6 59.6 50.2 60.3 49.9C61 49.6 61.8 49.3 62.6 49.1C63.4 48.9 64.2 48.7 65 48.7C65.4 48.7 65.8 48.6 66.2 48.6C66.3 48.6 66.4 48.6 66.5 48.6H66.8H67H67.1H67.4C68.3 48.7 69.2 48.8 70 49C71.7 49.4 73.4 50 75 50.9C78.2 52.7 80.9 55.4 82.5 58.7C83.3 60.3 83.9 62.1 84.2 64C84.3 64.5 84.3 64.9 84.4 65.4V65.7V66C84.4 66.1 84.4 66.2 84.4 66.3C84.4 66.4 84.4 66.5 84.4 66.6V66.9V67.2C84.4 67.4 84.4 67.8 84.4 68C84.4 68.5 84.3 69 84.3 69.5C84.2 70 84.2 70.5 84.1 71C84 71.5 83.9 72 83.8 72.5C83.6 73.5 83.2 74.4 82.9 75.4C82.2 77.3 81.2 79.1 80 80.7C77.6 84 74.3 86.7 70.6 88.4C68.7 89.2 66.8 89.9 64.8 90.2C63.8 90.4 62.8 90.5 61.8 90.5H61.6H61.4H61.1H60.6H60.3H60.2C59.7 90.5 59.1 90.5 58.6 90.4C56.4 90.2 54.3 89.8 52.2 89.2C50.1 88.6 48.1 87.8 46.2 86.8C42.4 84.8 39 81.9 36.3 78.6C35 76.9 33.8 75.1 32.8 73.2C31.8 71.3 31.1 69.3 30.5 67.3C29.9 65.3 29.6 63.2 29.5 61.1V60.7V60.6V60.5V60.3V60V59.9V59.8V59.6V59.1V59V58.8C29.5 58.5 29.5 58.3 29.5 58C29.5 57 29.6 55.9 29.8 54.8C29.9 53.7 30.1 52.7 30.3 51.6C30.5 50.5 30.8 49.5 31.1 48.4C31.7 46.3 32.4 44.3 33.3 42.4C35.1 38.6 37.4 35.2 40.1 32.5C40.8 31.8 41.5 31.2 42.3 30.6C42.6 30.3 43.3 29.7 44.1 29.2C44.9 28.7 45.7 28.2 46.6 27.8C47 27.6 47.4 27.4 47.9 27.2C48.1 27.1 48.3 27 48.6 26.9C48.8 26.8 49 26.7 49.3 26.6C50.2 26.2 51.1 25.9 52 25.6C52.2 25.5 52.5 25.5 52.7 25.4C52.9 25.3 53.2 25.3 53.4 25.2C53.9 25.1 54.3 25 54.8 24.8C55 24.7 55.3 24.7 55.5 24.6C55.7 24.6 56 24.5 56.2 24.5C56.4 24.5 56.7 24.4 56.9 24.4L57.3 24.3L57.7 24.2C57.9 24.2 58.2 24.1 58.4 24.1C58.7 24.1 58.9 24 59.2 24C59.4 24 59.8 23.9 60 23.9C60.2 23.9 60.3 23.9 60.5 23.8H60.8H61H61.2C61.5 23.8 61.7 23.8 62 23.7H62.4H62.5H62.7C62.9 23.7 63.2 23.7 63.4 23.7C64.3 23.7 65.2 23.7 66.1 23.7C67.9 23.8 69.7 24 71.4 24.3C74.8 24.9 78.1 26 81 27.5C83.9 28.9 86.6 30.7 88.8 32.6C88.9 32.7 89.1 32.8 89.2 33C89.3 33.1 89.5 33.2 89.6 33.4C89.9 33.6 90.1 33.9 90.4 34.1C90.7 34.3 90.9 34.6 91.2 34.8C91.4 35.1 91.7 35.3 91.9 35.6C92.9 36.6 93.8 37.7 94.6 38.7C96.2 40.8 97.5 42.9 98.5 44.9C98.6 45 98.6 45.1 98.7 45.3C98.8 45.4 98.8 45.5 98.9 45.7C99 45.9 99.1 46.2 99.3 46.4C99.4 46.6 99.5 46.9 99.6 47.1C99.7 47.3 99.8 47.6 99.9 47.8C100.3 48.7 100.6 49.6 100.9 50.5C101.4 51.9 101.7 53.1 102 54.1C102.1 54.5 102.5 54.8 102.9 54.8C103.4 54.8 103.7 54.4 103.7 53.9C103.6 52.7 103.6 51.4 103.5 49.9Z" fill="url(#paint0_linear_26641_8655)"/>
<defs>
<linearGradient id="paint0_linear_26641_8655" x1="51.85" y1="138.111" x2="51.85" y2="35.2585" gradientUnits="userSpaceOnUse">
<stop stop-color="#FCEE1F"/>
<stop offset="1" stop-color="#F15B2A"/>
</linearGradient>
<clipPath id="clip0_26641_8655">
<rect width="103.7" height="112.7" fill="white"/>
</clipPath>
</defs>
</svg>
